public/tools-icons/bun.svg

<svg xmlns="http://www.w3.org/2000/svg" width="24" height="24" fill="none"><g clip-path="url(#clip0_140_88)"><path fill="#26265a" d="M12 22.5961C18.628 22.5961 24 18.2581 24 12.9081C24 9.59005 21.943 6.66005 18.781 4.92205C17.495 4.20705 16.484 3.56505 15.642 3.03205C14.058 2.02505 13.08 1.40405 12 1.40405C10.903 1.40405 9.666 2.18905 8.034 3.22505C7.11422 3.82149 6.17505 4.38746 5.218 4.92205C2.057 6.66005 0 9.59005 0 12.9081C0 18.2581 5.372 22.5951 12 22.5951V22.5961ZM10.599 4.71505C10.933 3.95605 11.102 3.13505 11.097 2.30605C11.097 2.16105 11.299 2.11905 11.327 2.27705C11.985 5.06005 10.425 6.43905 9.27 6.90105C9.146 6.94905 9.071 6.78005 9.167 6.69205C9.78003 6.14287 10.2683 5.46875 10.599 4.71505ZM12.657 4.61305C12.5618 3.79785 12.2953 3.01198 11.875 2.30705V2.29105C11.806 2.16805 11.961 2.02805 12.06 2.11905C14.022 4.23005 13.367 6.18605 12.616 7.17005C12.534 7.27305 12.386 7.16705 12.427 7.04405C12.6738 6.25892 12.7522 5.43054 12.657 4.61305ZM14.433 4.05205C14.0305 3.34207 13.4809 2.72631 12.821 2.24605V2.23205C12.709 2.14705 12.797 1.95805 12.935 2.01405C15.53 3.10105 15.709 5.19405 15.394 6.42105C15.3874 6.45014 15.3699 6.47557 15.345 6.49205C15.3212 6.50883 15.2918 6.51551 15.2631 6.51063C15.2345 6.50576 15.2089 6.48973 15.192 6.46605C15.1749 6.44197 15.167 6.41247 15.17 6.38305C15.09 5.56307 14.839 4.76897 14.433 4.05205ZM9.346 4.61305C8.729 5.15905 8.064 5.37305 7.283 5.61305C7.166 5.61305 7.088 5.53505 7.127 5.43205C8.879 4.52305 9.503 3.78305 10.126 2.65405C10.126 2.65405 10.281 2.53605 10.314 2.73905C10.314 3.04305 9.965 4.06805 9.346 4.61305ZM14.291 15.8501C14.1491 16.4531 13.8213 16.9963 13.354 17.4031C13.008 17.7491 12.554 17.9681 12.068 18.0231C11.5674 17.9758 11.0985 17.7567 10.741 17.4031C10.278 16.9947 9.95455 16.4516 9.816 15.8501C9.81141 15.8144 9.81477 15.7781 9.82584 15.7439C9.8369 15.7097 9.8554 15.6783 9.88 15.6521C9.90483 15.6267 9.9351 15.6073 9.96854 15.5953C10.002 15.5833 10.0377 15.5792 10.073 15.5831H14.038C14.0729 15.5791 14.1083 15.5834 14.1413 15.5956C14.1743 15.6077 14.204 15.6274 14.228 15.6531C14.278 15.7061 14.301 15.7781 14.291 15.8501ZM8.833 13.6741C8.47037 13.9204 8.03244 14.0309 7.59634 13.9861C7.16025 13.9413 6.75395 13.744 6.449 13.4291C6.14015 13.1071 5.94909 12.6902 5.9068 12.2461C5.86451 11.8019 5.97346 11.3565 6.216 10.9821C6.423 10.6631 6.719 10.4161 7.064 10.2691C7.40833 10.1222 7.78929 10.0838 8.156 10.1591C8.522 10.2341 8.859 10.4201 9.123 10.6901C9.3877 10.9655 9.56705 11.3117 9.63945 11.6868C9.71184 12.0618 9.67418 12.4499 9.531 12.8041C9.38881 13.156 9.14603 13.4593 8.833 13.6741ZM17.328 13.6791C16.9649 13.924 16.5269 14.0329 16.0914 13.9866C15.6558 13.9403 15.2506 13.7418 14.947 13.4261C14.5945 13.0588 14.3984 12.5691 14.4 12.0601C14.4 11.6761 14.51 11.3001 14.72 10.9811C14.927 10.6621 15.223 10.4141 15.569 10.2681C15.9139 10.1219 16.2952 10.0842 16.662 10.1601C17.029 10.2361 17.366 10.4221 17.63 10.6941C17.8939 10.9706 18.0722 11.3177 18.1431 11.6934C18.2141 12.0691 18.1748 12.4572 18.03 12.8111C17.8865 13.1632 17.6423 13.4651 17.328 13.6791Z"/></g><defs><clipPath id="clip0_140_88"><path fill="#fff" d="M0 0H24V24H0z"/></clipPath></defs></svg>

<svg xmlns="http://www.w3.org/2000/svg" width="24" height="24" fill="none" viewBox="0 0 24 24"><g clip-path="url(#a)"><path fill="#26265a" d="M12 22.596c6.628 0 12-4.338 12-9.688 0-3.318-2.057-6.248-5.219-7.986-1.286-.715-2.297-1.357-3.139-1.89C14.058 2.025 13.08 1.404 12 1.404c-1.097 0-2.334.785-3.966 1.821a50 50 0 0 1-2.816 1.697C2.057 6.66 0 9.59 0 12.908c0 5.35 5.372 9.687 12 9.687zM10.599 4.715c.334-.759.503-1.58.498-2.409 0-.145.202-.187.23-.029.658 2.783-.902 4.162-2.057 4.624-.124.048-.199-.12-.103-.209a5.8 5.8 0 0 0 1.432-1.977m2.058-.102a5.8 5.8 0 0 0-.782-2.306v-.016c-.069-.123.086-.263.185-.172 1.962 2.111 1.307 4.067.556 5.051-.082.103-.23-.003-.189-.126a5.85 5.85 0 0 0 .23-2.43m1.776-.561a5.7 5.7 0 0 0-1.612-1.806v-.014c-.112-.085-.024-.274.114-.218 2.595 1.087 2.774 3.18 2.459 4.407a.12.12 0 0 1-.049.071.11.11 0 0 1-.153-.026.12.12 0 0 1-.022-.083 5.9 5.9 0 0 0-.737-2.33m-5.087.561c-.617.546-1.282.76-2.063 1-.117 0-.195-.078-.156-.181 1.752-.909 2.376-1.649 2.999-2.778 0 0 .155-.118.188.085 0 .304-.349 1.33-.968 1.874m4.945 11.237a2.96 2.96 0 0 1-.937 1.553c-.346.346-.8.565-1.286.62-.5-.047-.97-.266-1.327-.62a2.96 2.96 0 0 1-.925-1.553.24.24 0 0 1 .064-.198.24.24 0 0 1 .193-.069h3.965a.22.22 0 0 1 .19.07c.05.053.073.125.063.197m-5.458-2.176a1.86 1.86 0 0 1-2.384-.245 1.98 1.98 0 0 1-.233-2.447c.207-.319.503-.566.848-.713a1.84 1.84 0 0 1 1.092-.11c.366.075.703.261.967.531a1.98 1.98 0 0 1 .408 2.114 1.93 1.93 0 0 1-.698.87m8.495.005a1.86 1.86 0 0 1-2.381-.253 1.96 1.96 0 0 1-.547-1.366c0-.384.11-.76.32-1.079.207-.319.503-.567.849-.713a1.84 1.84 0 0 1 1.093-.108c.367.076.704.262.968.534a1.98 1.98 0 0 1 .4 2.117 1.93 1.93 0 0 1-.702.868"/></g><defs><clipPath id="a"><path fill="#fff" d="M0 0h24v24H0z"/></clipPath></defs></svg>
